docs/static/img/logos/minio.svg

<svg width="14" height="24" viewBox="0 0 14 24" fill="none" xmlns="http://www.w3.org/2000/svg">
<path d="M10.4701 1.7793C10.4701 1.7793 12.875 5.35899 13.6828 6.6313C13.69 6.64076 13.6939 6.65206 13.6939 6.66364C13.6939 6.67523 13.69 6.68653 13.6828 6.69599C13.6715 6.70601 13.6564 6.7116 13.6408 6.7116C13.6251 6.7116 13.61 6.70601 13.5987 6.69599L9.45215 2.68932L10.4701 1.7793Z" fill="#F05A28"/>
<path d="M3.37732 14.83C4.08128 13.4505 5.03869 12.1942 6.20709 11.1166C6.64676 10.7067 7.11469 10.3235 7.60797 9.96938V12.8029L3.37732 14.83ZM0.925781 17.4479L7.61731 14.2995V21.4934L9.12558 23.3221V13.5836L10.0595 13.1523C10.6922 12.8579 11.2416 12.4308 11.6635 11.9052C12.0855 11.3796 12.3684 10.7701 12.4896 10.1254C12.6107 9.48067 12.5668 8.81872 12.3614 8.1925C12.1559 7.56628 11.7946 6.99318 11.3063 6.51907L7.85079 3.19383C7.71478 3.05706 7.64246 2.87638 7.64945 2.69078C7.65644 2.50519 7.74217 2.32958 7.88814 2.20187C8.03724 2.07467 8.23465 2.00694 8.4375 2.0134C8.64035 2.01986 8.83224 2.09999 8.97149 2.23637L9.43845 2.70216L10.4704 1.78783C9.25167 0.325763 7.7574 0.493966 6.88885 1.2401C6.4656 1.60857 6.21803 2.11716 6.20052 2.65412C6.18301 3.19109 6.39699 3.71251 6.79546 4.10385L10.2696 7.44634C10.5872 7.75894 10.8249 8.13331 10.9652 8.54193C11.1055 8.95055 11.1448 9.38302 11.0803 9.80753C11.0158 10.232 10.8491 10.6378 10.5924 10.995C10.3358 11.3521 9.99571 11.6516 9.59722 11.8714L9.13026 12.0956V7.54985C7.05512 8.53584 5.24305 9.93528 3.82497 11.6471C2.4069 13.3588 1.41825 15.3402 0.930455 17.4479" fill="#010000"/>
</svg>

<svg xmlns="http://www.w3.org/2000/svg" width="14" height="24" fill="none" xmlns:v="https://vecta.io/nano"><path d="M10.47 1.779l3.213 4.852c.007.009.011.021.011.032s-.004.023-.011.032-.026.016-.042.016-.031-.006-.042-.016L9.452 2.689l1.018-.91z" fill="#f05a28"/><path d="M3.377 14.83c.704-1.38 1.661-2.636 2.83-3.713.44-.41.908-.793 1.401-1.147v2.834L3.377 14.83zM.926 17.448L7.617 14.3v7.194l1.508 1.829v-9.738l.934-.431a4.47 4.47 0 0 0 1.604-1.247c.422-.526.705-1.135.826-1.78s.077-1.307-.128-1.933-.567-1.199-1.055-1.673L7.851 3.194c-.136-.137-.208-.317-.201-.503s.093-.361.239-.489a.81.81 0 0 1 .549-.188.8.8 0 0 1 .534.223l.467.466 1.032-.914C9.252.326 7.757.494 6.889 1.24c-.423.368-.671.877-.688 1.414s.196 1.058.595 1.45l3.474 3.342a2.83 2.83 0 0 1 .696 1.096 2.66 2.66 0 0 1 .115 1.266 2.74 2.74 0 0 1-.488 1.187c-.257.357-.597.657-.995.876l-.467.224V7.55c-2.075.986-3.887 2.385-5.305 4.097A14.07 14.07 0 0 0 .93 17.448" fill="#010000"/></svg>
